X:1
T:Standin In The Need of Prayer
T:Ride on King Jesus
T:Copyright 1881 by The Riverside Press
T:Rodeheaver's Plantation Melodies
Z:Rodeheaver's Plantation Melodies
L:1/8
Q:1/4=100
M:2/2
K:G
V:1 treble nm="Soprano" snm="S."
V:1
 c2 c4 AG |{/A} G4 E4 | A2 A4 GA | c2 c2 c4 | c2 c4 AG | (A G3) (ED C2) | E2 (ED C2) DC | %7
w: Ride on King- *|Je- sus.|No man can a|bin- der me.|Ride on King- *|Je- * sus- * .|No man- * * can a|
 C2 C2 C2 || G2 | G2 G2 G2 G2 | A2 A2 G4 | A2 A4 GA | c2 c2 c2 C2 | %13
w: bin- der me.|I|was but young when|I be- gun.|No man can a|bin- der me. But|
"_2. King Jesus rides on a mil-white horse. No man can a binder me.\n    The river of Jordan He did cross.  No man can a binder me.\n\n3. If you want to find your way to God. No man can a binder me.\n    The gospel highway must be trod. No man can a binder me.\n" C2 E2 G2 G2 | %14
w: now my race is|
 A2 G2 (ED C2) | E2 (ED C2) DC | C2 C2 C4!D.C.! |] %17
w: al- most done- * .|No man- * * can a|bin- der me.|

